actions/symbolic/format-text-remove-formatting-symbolic.svg

<svg viewBox="0 0 16 16" xmlns="http://www.w3.org/2000/svg"><path d="m3.1946903 2-1.1946903 1.1946903 3.9872788 3.9872787c-.6494919.0751101-1.2212515.3632956-1.5978983.7914823-.4370124.4968128-.6425968 1.1134557-.6371681 1.7256637.0051.612208.2284715 1.234161.6637168 1.725664s1.1133196.823009 1.8849558.823009h4.247788.504424l1.752213 1.752212 1.19469-1.19469zm3.4513274 1.7522124 1.699115 1.699115h1.3539823c.363747 0 .849558.5217473.849558.8495576v.8495575h-.504425l2.20354 2.2035395v-3.053097c.000076-1.3884659-1.121246-2.5486726-2.548673-2.5486726zm-.3451327 5.0973451h1.3539823l1.699115 1.6991155h-3.0530973c-.3380135 0-.4816227-.09327-.6106195-.238938-.1289968-.145666-.2368312-.373271-.2389381-.61062-.0017-.237349.088923-.470264.2123894-.610619.1234662-.140356.278349-.2389385.6371682-.2389385z" fill="#bebebe"/></svg>

<?xml version="1.0" encoding="UTF-8" standalone="no"?>
<svg
   xmlns:dc="http://purl.org/dc/elements/1.1/"
   xmlns:cc="http://creativecommons.org/ns#"
   xmlns:rdf="http://www.w3.org/1999/02/22-rdf-syntax-ns#"
   xmlns:svg="http://www.w3.org/2000/svg"
   xmlns="http://www.w3.org/2000/svg"
   xmlns:sodipodi="http://sodipodi.sourceforge.net/DTD/sodipodi-0.dtd"
   xmlns:inkscape="http://www.inkscape.org/namespaces/inkscape"
   viewBox="0 0 16 16"
   id="svg3429"
   version="1.1"
   inkscape:version="0.91 r13725"
   sodipodi:docname="format-text-remove-formatting-symbolic.svg">
  <metadata
     id="metadata3437">
    <rdf:RDF>
      <cc:Work
         rdf:about="">
        <dc:format>image/svg+xml</dc:format>
        <dc:type
           rdf:resource="http://purl.org/dc/dcmitype/StillImage" />
      </cc:Work>
    </rdf:RDF>
  </metadata>
  <sodipodi:namedview
     pagecolor="#ffffff"
     bordercolor="#666666"
     borderopacity="1"
     objecttolerance="10"
     gridtolerance="10"
     guidetolerance="10"
     inkscape:pageopacity="0"
     inkscape:pageshadow="2"
     inkscape:window-width="640"
     inkscape:window-height="480"
     id="namedview3435"
     showgrid="false"
     inkscape:zoom="41.1875"
     inkscape:cx="3.6783005"
     inkscape:cy="8"
     inkscape:current-layer="svg3429" />
  <defs
     id="defs3051">
    <style
       type="text/css"
       id="current-color-scheme">
      .ColorScheme-Text {
        color:#bebebe;
      }
      </style>
  </defs>
  <path
     style="color:#bebebe;fill:currentColor;fill-opacity:1;stroke:none"
     class="ColorScheme-Text"
     d="M 3.1946903,2 2,3.1946903 5.9872788,7.181969 C 5.3377869,7.2570791 4.7660273,7.5452646 4.3893805,7.9734513 3.9523681,8.4702641 3.7467837,9.086907 3.7522124,9.699115 c 0.0051,0.612208 0.2284715,1.234161 0.6637168,1.725664 0.4352453,0.491503 1.1133196,0.823009 1.8849558,0.823009 l 4.247788,0 0.504424,0 L 12.80531,14 14,12.80531 3.1946903,2 Z m 3.4513274,1.7522124 1.699115,1.699115 1.3539823,0 c 0.363747,0 0.849558,0.5217473 0.849558,0.8495576 l 0,0.8495575 -0.504425,0 2.20354,2.2035395 0,-3.053097 C 12.247864,4.9124191 11.126542,3.7522124 9.699115,3.7522124 l -3.0530973,0 z m -0.3451327,5.0973451 1.3539823,0 1.699115,1.6991155 -3.0530973,0 c -0.3380135,0 -0.4816227,-0.09327 -0.6106195,-0.238938 C 5.5612687,10.164069 5.4534343,9.936464 5.4513274,9.699115 5.4496274,9.461766 5.5402504,9.228851 5.6637168,9.088496 5.787183,8.94814 5.9420658,8.8495575 6.300885,8.8495575 Z"
     id="path3433"
     inkscape:connector-curvature="0" />
</svg>
